FINK
CUT[DER VOGELFAENGER]
REG[Europa, Mitteleuropa, Deutschland]
KEY[F0151  16  G 2/4]
MEL[32  1_1_21-71  2_3_2_
    2-7  -5_-5_5_.5  3_2_1_
    3_  21-7121-71  2_3_2_0
    2  5_.52_.2  -7_-6_-5_
    -5-7  2_2_3212  3_2_1_
    5_  5-7_-721-71  2_3_2_
    12  3_.34323  4_5_6_
    42  -7_.-71-7-6-7  132-71_ //] >>
FCT[Scherz -, Liebes - Lied]
